X:1
T:Sweet Biddy Daly #1
C:Joe Buchanan's Scottish Tome - Page 289.1
L:1/8
M:6/8
I:linebreak $
K:A
V:1 treble 
V:1
 a |"A" ecA"^E a" BAF |"A" AFE"^E a" EFA |"^A/Bm" Bdc"E7" BAB |"Bm" cBB"E7" B2 a | %5
"A" ecA"^E a" BAF |"A" AFE"^E a" EFA |"Bm" Bdc"E7" BAB |$"A" cAA"A" A2 :| B |"A" cee"D" dff | %11
"A" cee"^E a" ecA |"A" cee"^E a" dff |"Bm" ecA"E7" B2 A |"A" cee"D" dff |"A" cee"^E a" ecA |$ %16
"Bm" Bdc"D7" BAB |"A" cAA"A" A2 :| %18
